images/logo.svg

<svg height="48" viewBox="0 0 247 48" width="247" xmlns="http://www.w3.org/2000/svg"><g fill="none" fill-rule="evenodd"><path d="m0 0h247v48h-247z" fill="#fff" fill-opacity=".01"/><path d="m20.938 38.666h-20.938v-.38c2.50801254.1520008 3.6986673-1.0766536 3.572-3.686v-21.508c0-1.4250071-.21152132-2.4046862-.63456992-2.9390622l-.08743008-.1009378c-.43066882-.53200266-1.32999316-.78533346-2.698-.76v-.38h12.312v.38c-2.3306783-.22800114-3.40733422 1.0259863-3.23 3.762v25.232h4.826c3.2426829.6333365 5.7506578-2.7739628 7.524-10.222l.38.152zm2.584-19.684 8.018-1.634v17.67c-.2026677 2.3813452.8359886 3.4706677 3.116 3.268v.38h-11.4v-.38c2.2293445.1520008 3.2680008-.9246551 3.116-3.23v-12.198c.1013338-2.4826791-.8486567-3.6480008-2.85-3.496zm5.51-10.982c1.874676.1266673 2.8626662 1.21598974 2.964 3.268-.0760004 2.0773437-1.0639905 3.1666662-2.964 3.268-1.9000095-.0760004-2.8879996-1.1653228-2.964-3.268.0760004-2.10267718 1.0639905-3.19199962 2.964-3.268zm14.516 10.64h4.446v.38h-4.446v15.96c-.0243591 1.778214.6773597 2.6897937 2.1051767 2.7347634l.1748233.0012366c.8613376.0253335 1.8366612-.3546627 2.926-1.14l.266.38c-1.7226753 1.5706745-3.5973232 2.3433335-5.624 2.318-3.3440167-.0253335-5.0286665-1.7353164-5.054-5.13v-15.124h-2.052v-.38c3.1666825.2786681 4.9399981-2.2293069 5.32-7.524h1.938zm13.756 0h4.446v.38h-4.446v15.96c-.0243591 1.778214.6773597 2.6897937 2.1051767 2.7347634l.1748233.0012366c.8613376.0253335 1.8366612-.3546627 2.926-1.14l.266.38c-1.7226753 1.5706745-3.5973232 2.3433335-5.624 2.318-3.3440167-.0253335-5.0286665-1.7353164-5.054-5.13v-15.124h-2.052v-.38c3.1666825.2786681 4.9399981-2.2293069 5.32-7.524h1.938zm6.498 20.026v-.38c2.2293445.1773342 3.2680008-.8993217 3.116-3.23v-20.634c.1520008-2.6600133-.8486559-3.8760011-3.002-3.648v-.38l8.322-2.09v26.714c-.1520008 2.3306783.8359894 3.4200008 2.964 3.268v.38zm31.958-10.602h-12.768c.0506669 7.0427019 1.975981 10.6273327 5.776 10.754 3.0653487-.3040015 5.3073262-2.0393175 6.726-5.206l.38.228c-1.7480087 3.6226848-4.5599806 5.4719996-8.436 5.548-6.5106992-.1520008-9.8293327-3.7366316-9.956-10.754.1266673-7.5240376 3.2806358-11.3746658 9.462-11.552 5.8266958.0506669 8.7653331 3.711297 8.816 10.982zm-12.768-.38h7.41c0-6.7084951-1.1453007-10.115014-3.4359357-10.2196532l-.1360643-.0023468c-2.5840129-.1013338-3.8633335 3.3059654-3.838 10.222zm46.55 10.982h-11.742v-.38c2.381345.1266673 3.521334-1.1019871 3.42-3.686v-21.28c.076-2.8120141-1.013322-4.1546673-3.268-4.028v-.38h11.438c10.158717.1266673 15.301333 5.0412848 15.428 14.744.101334 10.133384-4.990615 15.1366673-15.276 15.01zm-.456-29.374h-2.204v28.994h2.66c6.163971.074866 9.27962-4.5946938 9.347035-14.0088177l.000965-.4311823c0-9.6773817-3.267967-14.52866654-9.804-14.554zm37.962 18.772h-12.768c.050667 7.0427019 1.975981 10.6273327 5.776 10.754 3.065349-.3040015 5.307326-2.0393175 6.726-5.206l.38.228c-1.748009 3.6226848-4.559981 5.4719996-8.436 5.548-6.510699-.1520008-9.829333-3.7366316-9.956-10.754.126667-7.5240376 3.280636-11.3746658 9.462-11.552 5.826696.0506669 8.765333 3.711297 8.816 10.982zm-12.768-.38h7.41c0-6.7084951-1.145301-10.115014-3.435936-10.2196532l-.136064-.0023468c-2.584013-.1013338-3.863333 3.3059654-3.838 10.222zm22.344-9.044h4.446v.38h-4.446v15.96c-.024359 1.778214.67736 2.6897937 2.105177 2.7347634l.174823.0012366c.861338.0253335 1.836661-.3546627 2.926-1.14l.266.38c-1.722675 1.5706745-3.597323 2.3433335-5.624 2.318-3.344017-.0253335-5.028667-1.7353164-5.054-5.13v-15.124h-2.052v-.38c3.166683.2786681 4.939998-2.2293069 5.32-7.524h1.938zm26.828 19.342v.38l-4.864.608c-1.849343.2533346-2.761333-.5699905-2.736-2.47-1.520008 1.7226753-3.546654 2.5966665-6.08 2.622-3.648018-.1520008-5.573332-1.8999833-5.776-5.244-.228001-4.4333555 3.68596-6.8779977 11.742-7.334v-4.522c-.101334-2.7613471-1.393321-4.2053327-3.876-4.332-1.596008.0506669-3.09066.5193289-4.484 1.406 2.204011-.0760004 3.369333.9246563 3.496 3.002-.076 1.7226753-1.089324 2.6219996-3.04 2.698-1.697342-.0760004-2.584-.9373251-2.66-2.584.329335-3.1666825 3.052641-4.8386658 8.17-5.016 4.889358.1266673 7.409999 2.3053122 7.562 6.536v12.122c-.101334 1.4946741.747324 2.2040004 2.546 2.128zm-7.714-4.18v-6.878c-4.281355.65867-6.409333 2.9893133-6.384 6.992.101334 2.6346798 1.063991 4.0406658 2.888 4.218 2.229344-.2026677 3.394666-1.6466532 3.496-4.332zm9.804-14.82 8.018-1.634v17.67c-.202668 2.3813452.835989 3.4706677 3.116 3.268v.38h-11.4v-.38c2.229344.1520008 3.268001-.9246551 3.116-3.23v-12.198c.101334-2.4826791-.848657-3.6480008-2.85-3.496zm5.51-10.982c1.874676.1266673 2.862666 1.21598974 2.964 3.268-.076 2.0773437-1.06399 3.1666662-2.964 3.268-1.900009-.0760004-2.888-1.1653228-2.964-3.268.076-2.10267718 1.063991-3.19199962 2.964-3.268zm7.258 30.666v-.38c2.229344.1773342 3.268001-.8993217 3.116-3.23v-20.634c.152001-2.6600133-.848656-3.8760011-3.002-3.648v-.38l8.322-2.09v26.714c-.152001 2.3306783.835989 3.4200008 2.964 3.268v.38zm27.322-14.326-.38.114c-1.482934-4.6959584-3.291364-6.9926653-5.425341-6.8901845l-.160659.0121845c-2.153344.1013338-3.280666 1.2413224-3.382 3.42 0 1.8834117 1.39335 3.4479789 4.180089 4.693745l.303911.132255c3.901353 1.6213414 5.826667 3.9266517 5.776 6.916-.126667 4.2053544-2.507977 6.3839992-7.144 6.536-1.697342.0253335-3.318659-.2533304-4.864-.836l-1.786.38-.608-7.372.38-.114c1.722675 5.396027 3.90132 7.9166684 6.536 7.562 2.330678-.1013338 3.534-1.3046551 3.61-3.61.024566-1.9161308-1.689802-3.5940237-5.143154-5.0337258l-.328846-.1342742c-3.496017-1.3933403-5.231333-3.5719852-5.206-6.536.076-4.1546874 2.49531-6.2826662 7.258-6.384 1.646675 0 2.976662.2406643 3.99.722l1.824-.57z" fill="#202327" fill-rule="nonzero"/></g></svg>

<?xml version="1.0" encoding="UTF-8"?>
<svg width="247px" height="48px" viewBox="0 0 247 48" version="1.1" xmlns="http://www.w3.org/2000/svg" xmlns:xlink="http://www.w3.org/1999/xlink">
    <title>logo</title>
    <g id="页面-1" stroke="none" stroke-width="1" fill="none" fill-rule="evenodd">
        <g id="画板" transform="translate(-3799.000000, -585.000000)">
            <g id="logo" transform="translate(3799.000000, 585.000000)">
                <rect id="矩形" fill-opacity="0.01" fill="#FFFFFF" x="0" y="0" width="247" height="48"></rect>
                <path d="M20.938,38.666 L1.13686838e-13,38.666 L1.13686838e-13,38.286 C2.50801254,38.4380008 3.6986673,37.2093464 3.572,34.6 L3.572,13.092 C3.572,11.6669929 3.36047868,10.6873138 2.93743008,10.1529378 L2.85,10.052 C2.41933118,9.51999734 1.52000684,9.26666654 0.152,9.292 L0.152,8.912 L12.464,8.912 L12.464,9.292 C10.1333217,9.06399886 9.05666578,10.3179863 9.234,13.054 L9.234,38.286 L14.06,38.286 C17.3026829,38.9193365 19.8106578,35.5120372 21.584,28.064 L21.964,28.216 L20.938,38.666 Z M23.522,18.982 L31.54,17.348 L31.54,35.018 C31.3373323,37.3993452 32.3759886,38.4886677 34.656,38.286 L34.656,38.666 L23.256,38.666 L23.256,38.286 C25.4853445,38.4380008 26.5240008,37.3613449 26.372,35.056 L26.372,22.858 C26.4733338,20.3753209 25.5233433,19.2099992 23.522,19.362 L23.522,18.982 Z M29.032,8 C30.906676,8.1266673 31.8946662,9.21598974 31.996,11.268 C31.9199996,13.3453437 30.9320095,14.4346662 29.032,14.536 C27.1319905,14.4599996 26.1440004,13.3706772 26.068,11.268 C26.1440004,9.16532282 27.1319905,8.07600038 29.032,8 Z M43.548,18.64 L47.994,18.64 L47.994,19.02 L43.548,19.02 L43.548,34.98 C43.5236409,36.758214 44.2253597,37.6697937 45.6531767,37.7147634 L45.828,37.716 C46.6893376,37.7413335 47.6646612,37.3613373 48.754,36.576 L49.02,36.956 C47.2973247,38.5266745 45.4226768,39.2993335 43.396,39.274 C40.0519833,39.2486665 38.3673335,37.5386836 38.342,34.144 L38.342,19.02 L36.29,19.02 L36.29,18.64 C39.4566825,18.9186681 41.2299981,16.4106931 41.61,11.116 L43.548,11.116 L43.548,18.64 Z M57.304,18.64 L61.75,18.64 L61.75,19.02 L57.304,19.02 L57.304,34.98 C57.2796409,36.758214 57.9813597,37.6697937 59.4091767,37.7147634 L59.584,37.716 C60.4453376,37.7413335 61.4206612,37.3613373 62.51,36.576 L62.776,36.956 C61.0533247,38.5266745 59.1786768,39.2993335 57.152,39.274 C53.8079833,39.2486665 52.1233335,37.5386836 52.098,34.144 L52.098,19.02 L50.046,19.02 L50.046,18.64 C53.2126825,18.9186681 54.9859981,16.4106931 55.366,11.116 L57.304,11.116 L57.304,18.64 Z M63.802,38.666 L63.802,38.286 C66.0313445,38.4633342 67.0700008,37.3866783 66.918,35.056 L66.918,14.422 C67.0700008,11.7619867 66.0693441,10.5459989 63.916,10.774 L63.916,10.394 L72.238,8.304 L72.238,35.018 C72.0859992,37.3486783 73.0739894,38.4380008 75.202,38.286 L75.202,38.666 L63.802,38.666 Z M95.76,28.064 L82.992,28.064 C83.0426669,35.1067019 84.967981,38.6913327 88.768,38.818 C91.8333487,38.5139985 94.0753262,36.7786825 95.494,33.612 L95.874,33.84 C94.1259913,37.4626848 91.3140194,39.3119996 87.438,39.388 C80.9273008,39.2359992 77.6086673,35.6513684 77.482,28.634 C77.6086673,21.1099624 80.7626358,17.2593342 86.944,17.082 C92.7706958,17.1326669 95.7093331,20.793297 95.76,28.064 Z M82.992,27.684 L90.402,27.684 C90.402,20.9755049 89.2566993,17.568986 86.9660643,17.4643468 L86.83,17.462 C84.2459871,17.3606662 82.9666665,20.7679654 82.992,27.684 Z M129.542,38.666 L117.8,38.666 L117.8,38.286 C120.181345,38.4126673 121.321334,37.1840129 121.22,34.6 L121.22,13.32 C121.296,10.5079859 120.206678,9.1653327 117.952,9.292 L117.952,8.912 L129.39,8.912 C139.548717,9.0386673 144.691333,13.9532848 144.818,23.656 C144.919334,33.789384 139.827385,38.7926673 129.542,38.666 Z M129.086,9.292 L126.882,9.292 L126.882,38.286 L129.542,38.286 C135.705971,38.360866 138.82162,33.6913062 138.889035,24.2771823 L138.89,23.846 C138.89,14.1686183 135.622033,9.31733346 129.086,9.292 Z M167.048,28.064 L154.28,28.064 C154.330667,35.1067019 156.255981,38.6913327 160.056,38.818 C163.121349,38.5139985 165.363326,36.7786825 166.782,33.612 L167.162,33.84 C165.413991,37.4626848 162.602019,39.3119996 158.726,39.388 C152.215301,39.2359992 148.896667,35.6513684 148.77,28.634 C148.896667,21.1099624 152.050636,17.2593342 158.232,17.082 C164.058696,17.1326669 166.997333,20.793297 167.048,28.064 Z M154.28,27.684 L161.69,27.684 C161.69,20.9755049 160.544699,17.568986 158.254064,17.4643468 L158.118,17.462 C155.533987,17.3606662 154.254667,20.7679654 154.28,27.684 Z M176.624,18.64 L181.07,18.64 L181.07,19.02 L176.624,19.02 L176.624,34.98 C176.599641,36.758214 177.30136,37.6697937 178.729177,37.7147634 L178.904,37.716 C179.765338,37.7413335 180.740661,37.3613373 181.83,36.576 L182.096,36.956 C180.373325,38.5266745 178.498677,39.2993335 176.472,39.274 C173.127983,39.2486665 171.443333,37.5386836 171.418,34.144 L171.418,19.02 L169.366,19.02 L169.366,18.64 C172.532683,18.9186681 174.305998,16.4106931 174.686,11.116 L176.624,11.116 L176.624,18.64 Z M203.452,37.982 L203.452,38.362 L198.588,38.97 C196.738657,39.2233346 195.826667,38.4000095 195.852,36.5 C194.331992,38.2226753 192.305346,39.0966665 189.772,39.122 C186.123982,38.9699992 184.198668,37.2220167 183.996,33.878 C183.767999,29.4446445 187.68196,27.0000023 195.738,26.544 L195.738,22.022 C195.636666,19.2606529 194.344679,17.8166673 191.862,17.69 C190.265992,17.7406669 188.77134,18.2093289 187.378,19.096 C189.582011,19.0199996 190.747333,20.0206563 190.874,22.098 C190.798,23.8206753 189.784676,24.7199996 187.834,24.796 C186.136658,24.7199996 185.25,23.8586749 185.174,22.212 C185.503335,19.0453175 188.226641,17.3733342 193.344,17.196 C198.233358,17.3226673 200.753999,19.5013122 200.906,23.732 L200.906,35.854 C200.804666,37.3486741 201.653324,38.0580004 203.452,37.982 Z M195.738,33.802 L195.738,26.924 C191.456645,27.58267 189.328667,29.9133133 189.354,33.916 C189.455334,36.5506798 190.417991,37.9566658 192.242,38.134 C194.471344,37.9313323 195.636666,36.4873468 195.738,33.802 Z M205.542,18.982 L213.56,17.348 L213.56,35.018 C213.357332,37.3993452 214.395989,38.4886677 216.676,38.286 L216.676,38.666 L205.276,38.666 L205.276,38.286 C207.505344,38.4380008 208.544001,37.3613449 208.392,35.056 L208.392,22.858 C208.493334,20.3753209 207.543343,19.2099992 205.542,19.362 L205.542,18.982 Z M211.052,8 C212.926676,8.1266673 213.914666,9.21598974 214.016,11.268 C213.94,13.3453437 212.95201,14.4346662 211.052,14.536 C209.151991,14.4599996 208.164,13.3706772 208.088,11.268 C208.164,9.16532282 209.151991,8.07600038 211.052,8 Z M218.31,38.666 L218.31,38.286 C220.539344,38.4633342 221.578001,37.3866783 221.426,35.056 L221.426,14.422 C221.578001,11.7619867 220.577344,10.5459989 218.424,10.774 L218.424,10.394 L226.746,8.304 L226.746,35.018 C226.593999,37.3486783 227.581989,38.4380008 229.71,38.286 L229.71,38.666 L218.31,38.666 Z M245.632,24.34 L245.252,24.454 C243.769066,19.7580416 241.960636,17.4613347 239.826659,17.5638155 L239.666,17.576 C237.512656,17.6773338 236.385334,18.8173224 236.284,20.996 C236.284,22.8794117 237.67735,24.4439789 240.464089,25.689745 L240.768,25.822 C244.669353,27.4433414 246.594667,29.7486517 246.544,32.738 C246.417333,36.9433544 244.036023,39.1219992 239.4,39.274 C237.702658,39.2993335 236.081341,39.0206696 234.536,38.438 L232.75,38.818 L232.142,31.446 L232.522,31.332 C234.244675,36.728027 236.42332,39.2486684 239.058,38.894 C241.388678,38.7926662 242.592,37.5893449 242.668,35.284 C242.692566,33.3678692 240.978198,31.6899763 237.524846,30.2502742 L237.196,30.116 C233.699983,28.7226597 231.964667,26.5440148 231.99,23.58 C232.066,19.4253126 234.48531,17.2973338 239.248,17.196 C240.894675,17.196 242.224662,17.4366643 243.238,17.918 L245.062,17.348 L245.632,24.34 Z" id="LittleDetails" fill="#202327" fill-rule="nonzero"></path>
            </g>
        </g>
    </g>
</svg>
